static/img/common/ico-d.svg

<svg width="25" height="25" viewBox="0 0 25 25" fill="none" xmlns="http://www.w3.org/2000/svg">
<path d="M12.5 0.25C19.2655 0.25 24.75 5.73451 24.75 12.5C24.75 19.2655 19.2655 24.75 12.5 24.75C5.73451 24.75 0.25 19.2655 0.25 12.5C0.25 5.73451 5.73451 0.25 12.5 0.25Z" fill="#333333" stroke="white" stroke-width="0.5"/>
<path d="M12.294 18H8.35085V6.36364H12.3736C13.5289 6.36364 14.5213 6.59659 15.3509 7.0625C16.1842 7.52462 16.8243 8.18939 17.2713 9.05682C17.7183 9.92424 17.9418 10.9621 17.9418 12.1705C17.9418 13.3826 17.7164 14.4242 17.2656 15.2955C16.8187 16.1667 16.1728 16.8352 15.3281 17.3011C14.4872 17.767 13.4759 18 12.294 18ZM10.4588 16.1761H12.1918C13.0024 16.1761 13.6785 16.0284 14.2202 15.733C14.7618 15.4337 15.169 14.9886 15.4418 14.3977C15.7145 13.803 15.8509 13.0606 15.8509 12.1705C15.8509 11.2803 15.7145 10.5417 15.4418 9.95455C15.169 9.36364 14.7656 8.92235 14.2315 8.63068C13.7012 8.33523 13.0421 8.1875 12.2543 8.1875H10.4588V16.1761Z" fill="white"/>
</svg>

<svg xmlns="http://www.w3.org/2000/svg" width="25" height="25" fill="none" viewBox="0 0 25 25"><path fill="#333" stroke="#fff" stroke-width=".5" d="M12.5.25c6.765 0 12.25 5.485 12.25 12.25S19.265 24.75 12.5 24.75.25 19.265.25 12.5 5.735.25 12.5.25Z"/><path fill="#fff" d="M12.294 18H8.351V6.364h4.023q1.732 0 2.977.699a4.67 4.67 0 0 1 1.92 1.994q.67 1.3.67 3.114 0 1.817-.675 3.125a4.67 4.67 0 0 1-1.938 2.005q-1.26.699-3.034.699m-1.835-1.824h1.733q1.215 0 2.028-.443.813-.45 1.222-1.335.409-.892.409-2.227 0-1.336-.41-2.216-.408-.887-1.21-1.324-.795-.444-1.977-.444H10.46z"/></svg>
